X:0629
T:Rocks of Cashel,
C:Irish.
M:C|
L:1/8
Q:1/2=76
I: :: ::
Z:Jack Campin * www.campin.me.uk * 2009
K:D
df     a2           b/a/g/f/     a2       |df     a2        b/a/g/f/ e2|\
df     a2           b/a/g/f/     ac'      |d'baf            geef      :|
d>f {g}f//e//f3/ {g}f//e//f3/ {g}f//e//f3/|d>f {g}f//e//f3/ geef       |\
d>f {g}f//e//f3/ {g}f//e//f3/ {g}f//e//f3/|d'baf            geef      :|
<end>
<start>
